svg/UnitedNationsOCHA-Humanitarian/telecommunications_mobile_phone_icon.svg

<svg xmlns="http://www.w3.org/2000/svg" viewBox="0 0 32 32" enable-background="new 0 0 32 32"><path fill="#407cca" d="m18.778 14.841h-2.346v-2.513c.19-.138.325-.353.325-.606 0-.416-.342-.756-.758-.756-.42 0-.758.34-.758.756 0 .256.133.469.325.609v2.51h-2.346c-.387 0-.701.313-.701.7v11.759c0 .385.314.7.701.7h5.557c.388 0 .701-.315.701-.7v-11.759c.0001-.388-.312-.7-.7-.7m-.314 6.305c0 .385-.315.7-.7.7h-3.528c-.389 0-.7-.315-.7-.7v-4.149c0-.388.311-.7.7-.7h3.528c.385 0 .7.313.7.7v4.149m5.272-9.409c0 .234-.191.432-.427.432-.237 0-.429-.197-.429-.432-.007-3.802-3.081-6.875-6.88-6.881-3.798.006-6.874 3.078-6.881 6.881 0 .234-.19.432-.428.432-.236 0-.426-.197-.426-.432-.0001-4.271 3.463-7.737 7.735-7.737 4.271 0 7.736 3.466 7.736 7.737m-2.22 0c0 .234-.19.432-.427.432-.235 0-.428-.197-.428-.432-.008-2.578-2.085-4.653-4.661-4.659-2.575.006-4.658 2.081-4.661 4.659 0 .234-.189.432-.428.432-.236 0-.427-.197-.427-.432 0-3.047 2.469-5.512 5.516-5.521 3.049.009 5.516 2.474 5.516 5.521m-1.935 0c0 .234-.19.432-.428.432-.236 0-.427-.197-.427-.432-.004-1.503-1.22-2.721-2.726-2.728-1.503.006-2.722 1.225-2.727 2.728 0 .234-.19.432-.427.432-.237 0-.428-.197-.428-.432 0-1.981 1.604-3.581 3.581-3.581s3.579 1.6 3.582 3.581"/></svg>

<?xml version="1.0" encoding="utf-8"?>
<!-- Generator: Adobe Illustrator 16.0.3, SVG Export Plug-In . SVG Version: 6.00 Build 0)  -->
<!DOCTYPE svg PUBLIC "-//W3C//DTD SVG 1.1//EN" "http://www.w3.org/Graphics/SVG/1.1/DTD/svg11.dtd">
<svg version="1.1" id="Layer_1" xmlns="http://www.w3.org/2000/svg" xmlns:xlink="http://www.w3.org/1999/xlink" x="0px" y="0px"
	 width="32px" height="32px" viewBox="0 0 32 32" enable-background="new 0 0 32 32" xml:space="preserve">
<path fill="#407CCA" d="M18.778,14.841h-2.346v-2.513c0.19-0.138,0.325-0.353,0.325-0.606c0-0.416-0.342-0.756-0.758-0.756
	c-0.42,0-0.758,0.34-0.758,0.756c0,0.256,0.133,0.469,0.325,0.609v2.51h-2.346c-0.387,0-0.701,0.313-0.701,0.7V27.3
	c0,0.385,0.314,0.7,0.701,0.7h5.557c0.388,0,0.701-0.315,0.701-0.7V15.541C19.479,15.153,19.166,14.841,18.778,14.841z
	 M18.464,21.146c0,0.385-0.315,0.7-0.7,0.7h-3.528c-0.389,0-0.7-0.315-0.7-0.7v-4.149c0-0.388,0.311-0.7,0.7-0.7h3.528
	c0.385,0,0.7,0.313,0.7,0.7V21.146z M23.736,11.737c0,0.234-0.191,0.432-0.427,0.432c-0.237,0-0.429-0.197-0.429-0.432
	C22.873,7.935,19.799,4.862,16,4.856c-3.798,0.006-6.874,3.078-6.881,6.881c0,0.234-0.19,0.432-0.428,0.432
	c-0.236,0-0.426-0.197-0.426-0.432C8.264,7.466,11.728,4,16,4C20.271,4,23.736,7.466,23.736,11.737z M21.516,11.737
	c0,0.234-0.19,0.432-0.427,0.432c-0.235,0-0.428-0.197-0.428-0.432C20.653,9.159,18.576,7.084,16,7.078
	c-2.575,0.006-4.658,2.081-4.661,4.659c0,0.234-0.189,0.432-0.428,0.432c-0.236,0-0.427-0.197-0.427-0.432
	c0-3.047,2.469-5.512,5.516-5.521C19.049,6.225,21.516,8.69,21.516,11.737z M19.581,11.737c0,0.234-0.19,0.432-0.428,0.432
	c-0.236,0-0.427-0.197-0.427-0.432C18.722,10.234,17.506,9.016,16,9.009c-1.503,0.006-2.722,1.225-2.727,2.728
	c0,0.234-0.19,0.432-0.427,0.432c-0.237,0-0.428-0.197-0.428-0.432c0-1.981,1.604-3.581,3.581-3.581S19.578,9.756,19.581,11.737z"/>
</svg>
